X: 1266
T: Bill Case's Heel and Toe Polka
B: australian traditional tunes wiki
M:2/4
L:1/8
R: Polka
Q: 1/4=100
K:D
V:1 
|:"D"AA f>e|"G"dB Bc/B/|1"D"AA d/c/d/e/|"A7"fe ec/B/:|2"A7"AA cB/c/|"D"ed dA/G/||
|:"D"FA A/B/A/G/|"D"FA A/B/A/G/|1"D"FA de|"A7"fe eA/G/:|2"D"FA "A7"cB/c/|"D"edd2||
% abcbook-tune_id 6342d53ab0c7be87cb368c6d


% abcbook-boost 0
% abcbook-tablature 
% abcbook-transpose 
% abcbook-lastupdated 1665324356731
% abcbook-soundfonts 
% abcbook-repeats 1
% NFF Book 2010

